src/lib/packages/icons/src/assets/line/volleyball.svg

<svg width="24" height="24" viewBox="0 0 24 24" fill="none" xmlns="http://www.w3.org/2000/svg">
<path d="M22.75 12C22.75 11.28 22.68 10.58 22.54 9.89999C22.54 9.89999 22.54 9.9 22.54 9.89C22.14 7.87 21.16 6.05 19.79 4.61C19.76 4.57 19.74 4.54999 19.7 4.50999C17.75 2.49999 15.02 1.25 12 1.25C8.98 1.25 6.33 2.46999 4.38 4.42999C4.38 4.42999 4.38 4.43 4.37 4.44C3.37 5.45 2.57 6.66 2.03 8C2.02 8.02 2.01 8.05001 2 8.07001C1.52 9.29001 1.25 10.61 1.25 12C1.25 16.82 4.43999 20.92 8.82999 22.27C8.83999 22.27 8.85999 22.27 8.87 22.27C9.85999 22.57 10.91 22.74 12 22.74C12.28 22.74 12.55 22.72 12.82 22.7C12.82 22.7 12.82 22.7 12.83 22.7C18.36 22.27 22.74 17.64 22.74 11.99L22.75 12ZM12.03 11.15C11.01 10.57 10.06 9.90001 9.19 9.13C11.62 6.96 14.72 5.75999 18 5.75999C18.28 5.75999 18.56 5.78 18.83 5.8C19.73 6.79 20.43 7.96999 20.84 9.28999C20.57 9.27999 20.29 9.27 20 9.27C17.22 9.27 14.48 9.93 12.03 11.17V11.15ZM4.82001 6.17999C6.40001 8.77999 8.58999 10.92 11.24 12.42C11.21 13.68 11.03 14.93 10.72 16.13C7.36 14.66 4.71001 11.82 3.51001 8.36C3.85001 7.57 4.29999 6.83999 4.82999 6.17999H4.82001ZM17.11 4.28999C13.76 4.48999 10.62 5.81001 8.12 8.07001C7.27 7.16001 6.52999 6.15 5.89999 5.06C7.52999 3.63 9.66 2.75 12 2.75C13.89 2.75 15.64 3.31999 17.11 4.28999ZM2.75 12C2.75 11.54 2.78999 11.09 2.85999 10.65C4.42999 13.73 7.05999 16.2 10.27 17.56C9.87999 18.63 9.37 19.67 8.75 20.64C5.25 19.32 2.75 15.95 2.75 11.99V12ZM10.25 21.08C10.93 19.94 11.48 18.73 11.89 17.47C11.89 17.45 11.91 17.44 11.92 17.42C11.92 17.4 11.92 17.39 11.92 17.37C12.42 15.8 12.69 14.15 12.73 12.47C13.84 11.91 15.01 11.48 16.22 11.19C16.24 11.47 16.25 11.74 16.25 11.99C16.25 15.47 14.91 18.73 12.49 21.22C12.33 21.22 12.17 21.24 12 21.24C11.4 21.24 10.82 21.18 10.25 21.07V21.08ZM14.81 20.81C16.71 18.28 17.75 15.23 17.75 12C17.75 11.66 17.73 11.3 17.71 10.92C18.47 10.81 19.23 10.75 20 10.75C20.41 10.75 20.79 10.77 21.16 10.8C21.21 11.19 21.25 11.59 21.25 12C21.25 16.12 18.54 19.62 14.81 20.81Z" fill="currentColor"/>
</svg>

<svg xmlns="http://www.w3.org/2000/svg" width="24" height="24" fill="none"><path fill="currentColor" d="M22.75 12c0-.72-.07-1.42-.21-2.1v-.01c-.4-2.02-1.38-3.84-2.75-5.28a.812.812 0 0 0-.09-.1A10.698 10.698 0 0 0 12 1.25c-3.02 0-5.67 1.22-7.62 3.18l-.01.01c-1 1.01-1.8 2.22-2.34 3.56-.01.02-.02.05-.03.07-.48 1.22-.75 2.54-.75 3.93 0 4.82 3.19 8.92 7.58 10.27h.04c.99.3 2.04.47 3.13.47.28 0 .55-.02.82-.04h.01c5.53-.43 9.91-5.06 9.91-10.71l.01.01Zm-10.72-.85a16.79 16.79 0 0 1-2.84-2.02c2.43-2.17 5.53-3.37 8.81-3.37.28 0 .56.02.83.04.9.99 1.6 2.17 2.01 3.49a17.685 17.685 0 0 0-8.81 1.88v-.02ZM4.82 6.18c1.58 2.6 3.77 4.74 6.42 6.24-.03 1.26-.21 2.51-.52 3.71-3.36-1.47-6.01-4.31-7.21-7.77.34-.79.79-1.52 1.32-2.18h-.01Zm12.29-1.89c-3.35.2-6.49 1.52-8.99 3.78-.85-.91-1.59-1.92-2.22-3.01a9.222 9.222 0 0 1 11.21-.77ZM2.75 12c0-.46.04-.91.11-1.35 1.57 3.08 4.2 5.55 7.41 6.91-.39 1.07-.9 2.11-1.52 3.08-3.5-1.32-6-4.69-6-8.65V12Zm7.5 9.08c.68-1.14 1.23-2.35 1.64-3.61 0-.02.02-.03.03-.05v-.05c.5-1.57.77-3.22.81-4.9 1.11-.56 2.28-.99 3.49-1.28.02.28.03.55.03.8 0 3.48-1.34 6.74-3.76 9.23-.16 0-.32.02-.49.02-.6 0-1.18-.06-1.75-.17v.01Zm4.56-.27c1.9-2.53 2.94-5.58 2.94-8.81 0-.34-.02-.7-.04-1.08.76-.11 1.52-.17 2.29-.17.41 0 .79.02 1.16.05.05.39.09.79.09 1.2 0 4.12-2.71 7.62-6.44 8.81Z"/></svg>
